!!!CDT:
!!!PTL: Il primo libro de madrigali a cinque voci
!!!PPP: Jena
!!!PPR: Weidner
!!!PDT: 1613
!!!PUB-format:
!!!RISM: C 3156
!!!rime: 157
!!!AGN: Madrigal
!!!SCT: Trm0157b
!!!SCA: Trm0157b
!!!original-voices: 5
!!!extant-voices: 4
!!!complete: N
!!!final: F
!!!COM: Clemsee, Christoforo
!!!OTL: Donna, nel mio ritorno
**kern	**text	**kern	**text	**kern	**text	**kern	**text
*part4	*part4	*part3	*part3	*part2	*part2	*part1	*part1
*staff4	*staff4	*staff3	*staff3	*staff2	*staff2	*staff1	*staff1
*I"Basso	*	*I"Tenore	*	*I"Alto	*	*I"Canto	*
*I'B	*	*I'T	*	*I'A	*	*I'C	*
*oclefF3	*	*oclefC4	*	*oclefC3	*	*oclefG2	*
*clefF4	*	*clefGv2	*	*clefGv2	*	*clefG2	*
*k[b-]	*	*k[b-]	*	*k[b-]	*	*k[b-]	*
*omet(C|)	*	*omet(C|)	*	*omet(C|)	*	*omet(C|)	*
*M2/1	*	*M2/1	*	*M2/1	*	*M2/1	*
=1	=1	=1	=1	=1	=1	=1	=1
!!LO:TX:a:t=à 5. [Quinto part missing]
1F	Don-	1r	.	0r	.	0r	.
2A	-na,	1c	Don-	.	.	.	.
2E	nel	.	.	.	.	.	.
=2	=2	=2	=2	=2	=2	=2	=2
2.F	mio	2A	-na,	0r	.	0r	.
.	.	2d	nel	.	.	.	.
4G	ri-	.	.	.	.	.	.
1A	-tor-	2.c	mio	.	.	.	.
.	.	4B-y	ri-	.	.	.	.
=3	=3	=3	=3	=3	=3	=3	=3
1F	-no,	4.A	-tor-	1r	.	1cc	Don-
.	.	8B-y	.	.	.	.	.
.	.	2c	.	.	.	.	.
1r	.	1F	-no,	1f	Don-	2a	-na,
.	.	.	.	.	.	2dd	nel
=4	=4	=4	=4	=4	=4	=4	=4
0r	.	0r	.	2a	-na,	2.cc	mio
.	.	.	.	2e	nel	.	.
.	.	.	.	.	.	4b-y	ri-
.	.	.	.	2.f	mio	2a	-tor-
.	.	.	.	.	.	2f	-no,
.	.	.	.	4g	ri-	.	.
=5	=5	=5	=5	=5	=5	=5	=5
0r	.	1c	<Don-	2a	-tor-	1r	.
.	.	.	.	1e	-no,	.	.
.	.	2A	-na,	.	.	2r	.
.	.	2d	nel	2d	Don-	2f	<Don-
=6	=6	=6	=6	=6	=6	=6	=6
1r	.	2.c	mio	1A	-na,	2a	-na,
.	.	.	.	.	.	2e	nel
.	.	4B-y	ri-	.	.	.	.
1F	Don-	1A	-tor-	2c	<Don-	2.f	mio
.	.	.	.	[2f	-na,	.	.
.	.	.	.	.	.	4g	ri-
=7	=7	=7	=7	=7	=7	=7	=7
2D	-na,	1d	-no,>	2f]	.	2a	-tor-
2G	nel	.	.	1d	nel	2b-y	.
2F	mio	2r	.	.	.	2a	-no,>
2E	ri-	2c	<Don-	2g	mio	2r	.
=8	=8	=8	=8	=8	=8	=8	=8
1.D	-tor-	2d	-na,	1.f	ri-	1ff	<Don-
.	.	2A	nel	.	.	.	.
.	.	2.B-y	mio	.	.	2dd	-na,
2E	.	.	.	2e	-tor-	2gg	nel
.	.	4c	ri-	.	.	.	.
=9	=9	=9	=9	=9	=9	=9	=9
1F	.	2d	-tor-	2d	.	2.ff	mio
.	.	2A	-no>	2.c	.	.	.
.	.	.	.	.	.	4ee	ri-
1G	.	1r	.	.	.	1dd	-tor-
.	.	.	.	8BnXL	.	.	.
.	.	.	.	8AJ	.	.	.
.	.	.	.	2Bni	.	.	.
=10	=10	=10	=10	=10	=10	=10	=10
2C	-no>	2r	.	1c	-no	1cc	-no>
2F	Il	4r	.	.	.	.	.
.	.	4c	Il	.	.	.	.
2E	mio	4c	mio	1r	.	2r	.
.	.	4B-y	pen-	.	.	.	.
2F	pen-	2A	-sie-	.	.	4r	.
.	.	.	.	.	.	4cc	Il
=11	=11	=11	=11	=11	=11	=11	=11
2C	-sie-	2G	-ro,	0r	.	4cc	mio
.	.	.	.	.	.	4b-y	pen-
4D	-ro,	2r	.	.	.	2a	-sie-
4d	Il	.	.	.	.	.	.
4d	mio	2r	.	.	.	2a	-ro,
4c	pen-	.	.	.	.	.	.
[2B-y	-sie-	4r	.	.	.	4r	.
.	.	4d	<Il	.	.	4dd	<Il
=12	=12	=12	=12	=12	=12	=12	=12
4B-]	.	4B-y	mio	1r	.	4dd	mio
4A	.	4c	pen-	.	.	4cc	pen-
2B-y	.	2d	-sie-	.	.	2b-y	-sie-
1F	-ro	4c	-ro,>	4r	.	2a	-ro>
.	.	4A	<Il	4c	Il	.	.
.	.	4A	mio	4c	mio	4r	.
.	.	4G	pen-	4B-y	pen-	8f	a
.	.	.	.	.	.	8g	cui
=13	=13	=13	=13	=13	=13	=13	=13
4r	.	2F	-sie-	2A	-sie-	4a	nul-
8F	a	.	.	.	.	8a	-la
8G	cui	.	.	.	.	8b-y	pon
4A	nul-	4F	-ro>	2f	.	2cc	fre-
8A	-la	8F	a	.	.	.	.
8B-y	pon	8G	cui	.	.	.	.
2c	fre-	4A	nul-	2.e	-ro	4cc	-no,
.	.	8A	-la	.	.	8cc	<a
.	.	8B-y	pon	.	.	8dd	cui
4C	-no,	2c	fre-	.	.	4ee	nul-
8C	<a	.	.	8g	a	8ee	-la
8D	cui	.	.	8f	cui	8ff	pon
=14	=14	=14	=14	=14	=14	=14	=14
4E	nul-	4c	-no,	4e	nul-	2.gg	fre-
8E	-la	4c	pon	8e	-la	.	.
8F	pon	.	.	8e	pon	.	.
2G	fre-	2B-y	fre-	2d	fre-	.	.
.	.	.	.	.	.	4dd	-no>
2D	-no>	2A	-no	4d	-no	4r	.
.	.	.	.	4d	Pre-	4ff	Pre-
2r	.	2r	.	4.d	-cor-	4.ff	-cor-
.	.	.	.	8c	-re	8ee	-re
=15	=15	=15	=15	=15	=15	=15	=15
1r	.	1r	.	4d	do-	4ff	do-
.	.	.	.	4e	-v'il	4cc	-v'il
.	.	.	.	1f	Ciel	2cc	Ciel
4r	.	4r	.	.	.	1r	.
4F	Pre-	4A	Pre-	.	.	.	.
4.F	-cor-	4.A	-cor-	4r	.	.	.
.	.	.	.	4c	<Pre-	.	.
8E	-re	8G	-re	.	.	.	.
=16	=16	=16	=16	=16	=16	=16	=16
4F	do-	4A	do-	4.c	-cor-	1r	.
4G	-v'il	4B-y	-v'il	.	.	.	.
.	.	.	.	8B-y	-re	.	.
4.A	Ciel	2c	Ciel	4A	do-	.	.
.	.	.	.	4f	-v'il	.	.
8B-y	.	.	.	.	.	.	.
4c	.	4r	.	4e	Ciel>	2r	.
4F	è	4c	è	4a	è	.	.
4B-y	più	4d	più	4g	più	4r	.
4A	se-	4c	se-	4f	se-	4f	è
=17	=17	=17	=17	=17	=17	=17	=17
4G	-re-	4B-y	-re-	4g	-re-	4b-y	più
4F	-no,	4c	-no,	4c	-no,	4a	se-
2r	.	2r	.	4r	.	2g	-re-
.	.	.	.	4c	<è	.	.
1r	.	1r	.	4f	più	4f	-no,
.	.	.	.	4e	se-	4cc	<è
.	.	.	.	4d	-re-	4ff	più
.	.	.	.	4c	-no,>	4ee	se-
=18	=18	=18	=18	=18	=18	=18	=18
0r	.	0r	.	4r	.	4dd	-re-
.	.	.	.	4c	<è	4cc	-no,>
.	.	.	.	4f	più	4r	.
.	.	.	.	4e	se-	4cc	<è
.	.	.	.	1d	-re-	4dd	più
.	.	.	.	.	.	4ee	se-
.	.	.	.	.	.	2ff	-re-
=19	=19	=19	=19	=19	=19	=19	=19
2r	.	1r	.	1c	-no,>	1ee	-no,>
4C	Et	.	.	.	.	.	.
8C	se	.	.	.	.	.	.
8C	ne	.	.	.	.	.	.
4D	vie-	4F	Et	2r	.	1r	.
4D	-n'a	8F	se	.	.	.	.
.	.	8F	ne	.	.	.	.
4E	far	4G	vie-	4c	Et	.	.
4E	con	4G	-n'a	8c	se	.	.
.	.	.	.	8c	ne	.	.
=20	=20	=20	=20	=20	=20	=20	=20
2F	voi	4A	far	4d	vie-	2r	.
.	.	4A	con	4d	-n'a	.	.
2E	sog-	4G	voi	4e	far	4cc	Et
.	.	4c	sog-	4e	con	8cc	se
.	.	.	.	.	.	8cc	ne
2D	-gior-	2F	-gior-	2f	voi	4dd	vie-
.	.	.	.	.	.	4dd	-n'a
2C	-no,	2G	-no,	2e	sog-	4ee	far
.	.	.	.	.	.	4ee	con
=21	=21	=21	=21	=21	=21	=21	=21
1r	.	1r	.	2d	-gior-	2ff	voi
.	.	.	.	2c	-no,	2ee	sog-
2r	.	2r	.	1r	.	2dd	-gior-
4F	Né	4A	Né	.	.	2cc	-no,
4G	da	4B-y	da	.	.	.	.
=22	=22	=22	=22	=22	=22	=22	=22
2A	voi,	2c	voi	4a	Né	0r	.
.	.	.	.	4g	da	.	.
4A	<Né	2.c	si	2f	voi	.	.
4B-y	da	.	.	.	.	.	.
4c	voi>	.	.	8e	si	.	.
.	.	.	.	8f	di-	.	.
8E	si	4c	di-	4.g	-par-	.	.
8F	di-	.	.	.	.	.	.
2G	-par-	2BnX	-par-	.	.	.	.
.	.	.	.	8e	.	.	.
.	.	.	.	4d	.	.	.
=23	=23	=23	=23	=23	=23	=23	=23
1C	-te	4c	-te	4e	-te	0r	.
.	.	4c	Già	4e	Già	.	.
.	.	2.c	mai	4e	mai	.	.
.	.	.	.	4e	la	.	.
1r	.	.	.	2.e	not-	.	.
.	.	4c	la	.	.	.	.
.	.	4c	not-	.	.	.	.
.	.	4F	-t'e'l	4a	-t'e'l	.	.
=24	=24	=24	=24	=24	=24	=24	=24
0r	.	2f	gior-	1f	gior-	2r	.
.	.	2F	-no	.	.	4r	.
.	.	.	.	.	.	4cc	Già
.	.	1r	.	1f	-no	4cc	mai
.	.	.	.	.	.	4cc	la
.	.	.	.	.	.	4cc	not-
.	.	.	.	.	.	4ff	-t'e'l
=25	=25	=25	=25	=25	=25	=25	=25
0r	.	1r	.	0r	.	2ee	gior-
.	.	.	.	.	.	2ee	-no
.	.	2A	Per-	.	.	2cc#X	Per-
.	.	4A	-ché	.	.	4cc#i	-ché
.	.	4BnX	l'an-	.	.	4dd	l'an-
=26	=26	=26	=26	=26	=26	=26	=26
0r	.	2c#X	-no-	1r	.	2ee	-no-
.	.	2d	-ia,	.	.	2ff	.
.	.	1r	.	2a	Per-	2ee	-ia,
.	.	.	.	4d	-ché	2r	.
.	.	.	.	4e	l'an-	.	.
=27	=27	=27	=27	=27	=27	=27	=27
0r	.	1r	.	2f	-no-	2a	<Per-
.	.	.	.	2d	-ia	4a	-ché
.	.	.	.	.	.	4bnX	l'an-
.	.	2A	<Per-	1r	.	2.cc#X	-no-
.	.	4A	-ché	.	.	.	.
.	.	4BnX	l'an-	.	.	4dd	.
=28	=28	=28	=28	=28	=28	=28	=28
0r	.	2c#X	-no-	2r	.	2ee	.
.	.	2d	-ia>	4f	cia-	2dd	-ia
.	.	.	.	4f	-scu-	.	.
.	.	4B-i	cia-	4f	-n'al-	4dd	cia-
.	.	4B-y	-scu-	2d	-tra	4dd	-scu-
.	.	4B-y	-n'al-	.	.	4dd	-n'al-
.	.	4F	-tra	[4f	par-	4ccnXi	-tra
=29	=29	=29	=29	=29	=29	=29	=29
2r	.	2cnX	par-	8f]L	.	2cc	par-
.	.	.	.	16e	.	.	.
.	.	.	.	16dJ	.	.	.
.	.	.	.	4e	.	.	.
4r	.	4F	-te;	4f	-te;	4cc	-te;
8F	On-	8A	On-	8f	On-	8ff	On-
8F	-de	8A	-de	8f	-de	8ff	-de
2F	sol	2A	sol	2a	sol	2ff	sol
4F	per	4A	per	4a	per	4ff	per
4G	vir-	4d	vir-	4g	vir-	4dd	vir-
=30	=30	=30	=30	=30	=30	=30	=30
4C	-tù	2c	-tù	2e	-tù	1gg	-tù
4c	del	.	.	.	.	.	.
4c	pen-	2r	.	2e	del	.	.
4B-y	-sier	.	.	.	.	.	.
2A	mi-	1r	.	4e	pen-	4r	.
.	.	.	.	4f	-sier	4cc	del
2G	-o	.	.	2g	mi-	4cc	pen-
.	.	.	.	.	.	4b-y	-sier
=31	=31	=31	=31	=31	=31	=31	=31
4r	.	4r	.	4f	-o	2a	mi-
4F	Men-	4A	Men-	4c	Men-	.	.
4E	-tre	4c	-tre	4c	-tre	2g	-o
4E	ne	4G	ne	4e	ne	.	.
4F	ven-	4.A	ven-	4c	ven-	1r	.
4D	-go a	.	.	4f	-go a	.	.
.	.	8BnX	-go a	.	.	.	.
2A	voi	2c	voi	4e	voi	.	.
.	.	.	.	4c	con	.	.
=32	=32	=32	=32	=32	=32	=32	=32
4r	.	1r	.	4.f	voi	4r	.
4F	con	.	.	.	.	4cc	con
.	.	.	.	8e	.	.	.
4B-y	voi	.	.	4d	.	4dd	voi
4G	son	.	.	4g	son	4b-y	son
2c	i-	4r	.	2e	i-	2cc	i-
.	.	4C	con	.	.	.	.
4c	-o,	4.c	voi,	4e	-o,	4cc	-o,
4C	con	.	.	4g	con	4ee	con
.	.	8G	<con	.	.	.	.
=33	=33	=33	=33	=33	=33	=33	=33
2D	voi	2d	voi>	2f	voi	4ff	voi
.	.	.	.	.	.	4dd	son
2AA	son	2c	son	4r	.	8eeL	.
.	.	.	.	.	.	8ccJ	.
.	.	.	.	4a	son	2ff	.
1C	i-	1c	i-	1g	i-	.	.
.	.	.	.	.	.	8eeL	.
.	.	.	.	.	.	8ddJ	.
.	.	.	.	.	.	2ee	i-
=34	=34	=34	=34	=34	=34	=34	=34
0Fl	-o.	0cl	-o.	0fl	-o.	0ffl	-o.
==	==	==	==	==	==	==	==
*-	*-	*-	*-	*-	*-	*-	*-
!!!system-decoration: [*]
!!!RDF**kern: i = editorial accidental
!!!RDF**kern: l = terminal long
!!!ENC: Emiliano Ricciardi
!!!END: 2018
!!!EED: Ricciardi, Emiliano
!!!EEV: 2018/10/28
!!!YEC: Copyright 2018 Emiliano Ricciardi, All Rights Reserved
!!!ONB: Translated from MusicXML on 2018/10/28 and edited by Craig Stuart Sapp
!!@@BEGIN:	VERSEDATA
!!@SOLERTI:	157
!!@CATALOGNUM:	Trm0157
!!@LAST_MODIFIED: 2020/07/12
!!@TITLE:		Donna, nel mio ritorno
!!@GENRE:		madrigale
!!@MANUSRC:	C, E<sub>1</sub>, F<sub>2</sub>, V<sub>8</sub>
!!@PRINTSRC:	28, 48, 54, 141, 166, 169
!!@@BEGIN:	VERSES
!!@ABOUTIT:	Dice che ritornando a la sua donna è seco per opera del suo pensiero.
!!@ABOUTEN:	He says that coming back to his lady [she] is with him due to his thinking [of her].
!!@EDITOR:	Solerti, Angelo
!!@EDITION_TITLE: Le Rime di Torquato Tasso
!!@EDITION_LOC:	Bologna
!!@EDITION_PUB:	Romagnoli-Dall’Acqua
!!@EDITION_DATE:  1898-1902
!!@EDITION_VOL:	2
!!@EDITION_PAGE:  237
!!@TRANSLATOR:	Emiliano Ricciardi and Amyrose McCue Gill
!!@VERSE:
!!	Donna, nel mio ritorno
!!	Il mio pensiero a cui nulla pon freno
!!	Precorre dove il cielo è più sereno,
!!	E se ne viene a far con voi soggiorno,
!!	Né da voi si diparte
!!	Giamai la notte e il giorno
!!	Perché l'annoia ciascun'altra parte;
!!	Onde sol per virtù del pensier mio
!!	Mentre ne vengo a voi con voi son io.
!!@TVERSE:
!!	Lady, during my return,
!!	My thought which nothing can restrain
!!	Runs where the sky is clearest
!!	And comes to be in your company,
!!	Nor does it ever leave you
!!	Never night nor day
!!	Because every other place bores it;
!!	So that merely by virtue of my thought
!!	While I come to you I am with you.
!!@@END:		VERSES
!!@OTHER_CRIT_ED:   Torquato Tasso, <i>Rime d’amore (secondo il codice
!!		Chigiano L VIII 302)</i>, eds. Franco Gavazzeni and
!!		Vercingetorige Martignone, vol. 4 of <i>Edizione
!!		Nazionale delle opere di Torquato Tasso</i>
!!		(Alessandria: Edizioni Dell’Orso, 2004), 125.
!!@ATTRIBUTION_ABOUT:	Secure
!!		<br>
!!		Among other authoritative sources (see Literary Sources), this poem appears, albeit deleted, in the autograph Chigiano
!!		L.VIII.302 (Biblioteca Vaticana, Rome), compiled
!!		around 1584&ndash;85.
!!@DATING:
!!@DEDICATEE:	Peperara, Laura ?
!!@COMMENTARY:
!!@@END:		VERSEDATA
!!@@BEGIN:	SETTING
!!@CATALOGNUM:	Trm0157b
!!@RIMETITLE:	Donna, nel mio ritorno
!!@SOLERTI:	157
!!@COMPOSER:	Clemsee, Christoforo
!!@PRINCEPSTITLE:	Il primo libro de madrigali a cinque voci
!!@PRINCEPSLOC:	Jena
!!@NORMLOC:	Jena
!!@NORMPUB:	Weidner
!!@NORMPUBSHORT:	Weidner
!!@PRINCEPSPUB:	Weidner
!!@PRINCEPSYEAR:	1613
!!@PRINCEPSRISM:	C 3156
!!@REPRINTS:	
!!@OVOICES:	5
!!@EXTANTVOICES:	4
!!@PARTBOOKS:	
!!@EXTPARTBOOKS:	
!!@OCLEFS:	G2,C3,C4,F3
!!@OMENSURATION:	Cut-C
!!@OKEYSIG:	b-
!!@FINAL:	F
!!@TIMPEDITOR:	Ricciardi, Emiliano
!!@NOTE:		
!!@@END:		SETTING
